X: 1
T: Khusidl #19 vol. 1  [Gm]
O: collected by G. Goldenshteyn
Z: 2012 John Chambers <jc:trillian.mit.edu>
M: 2/4
L: 1/16
Q: 1/4=65
K: Gm
|:\
"Gm"(AB)G2 G2G2 | G4- G2^FG |\
"F#m"^GA^F2 FEDE | "D"^F4- F2E2 |\
D2E2 ^F2G2 | A2B2 ^F2A2 |\
[1 "Gm"G6 d2 | "F#m"(d^c)cB (BA)AG :|
[2 "Gm"G4- G(DBA) | G4 z4 \
|:\
"Gm"D=E^FG (AB)G2 | (AB)G2 ABG2 |\
"Bb"FGAB ^cdB2 | ^cdB2 cdB2 |\
"Gm"d4 ^c3=e | (d^c)BA G4 |
"Gm"{A}B2AG "F#m"{G}A2G^F | "Gm"G2A2 B2c2 |\
d4 ^c3=e | (d^c)BA G4 |\
"Gm"{A}B2AG "F#m"{G}A2G^F |[1 "Gm"G4 z4 |[2 "Gm"G4- GFBc ||
|: "Bb"Td2(cB) Td2(cB) | d4- dFBc |\
Td2(cB) Td2(cB) |"Bb"d2z2 "Gm7"kd4 |\
"Cm"dec2- c2(c^c) | "Gm"(^cd)B2- B2Bd |
"F#m"(d^c)(cB) BAAG | G2A2 B2c2 |\
"Cm"(de)c2- c2(c^c) | "Gm"(^cd)B2- B2(Bd) |\
(d^c)(cB) (BA)(AG) |[1 G4- GFBc :|[2 "Gm"G2z2 z4 |]

%%sep 2 1 500
%%sep 1 1 500

